images/social_media/black/dribble_4.svg

<svg width="30" height="30" viewBox="0 0 30 30" fill="none" xmlns="http://www.w3.org/2000/svg">
<path d="M14.9821 0C17.0609 0 19.0084 0.394265 20.8244 1.1828C22.6404 1.97133 24.2294 3.04062 25.5914 4.39068C26.9534 5.74074 28.0287 7.32378 28.8172 9.13979C29.6057 10.9558 30 12.9032 30 14.9821C30 17.0609 29.6057 19.0084 28.8172 20.8244C28.0287 22.6404 26.9534 24.2294 25.5914 25.5914C24.2294 26.9534 22.6404 28.0287 20.8244 28.8172C19.0084 29.6057 17.0609 30 14.9821 30C12.9032 30 10.9558 29.6057 9.13979 28.8172C7.32378 28.0287 5.74074 26.9534 4.39068 25.5914C3.04062 24.2294 1.97133 22.6404 1.1828 20.8244C0.394265 19.0084 0 17.0609 0 14.9821C0 12.9032 0.394265 10.9558 1.1828 9.13979C1.97133 7.32378 3.04062 5.74074 4.39068 4.39068C5.74074 3.04062 7.32378 1.97133 9.13979 1.1828C10.9558 0.394265 12.9032 0 14.9821 0ZM14.9821 23.4409C16.1529 23.4409 17.2521 23.2198 18.2796 22.7778C19.3071 22.3357 20.2031 21.7324 20.9677 20.9677C21.7324 20.2031 22.3357 19.3071 22.7778 18.2796C23.2198 17.2521 23.4409 16.1529 23.4409 14.9821C23.4409 13.8112 23.2198 12.718 22.7778 11.7025C22.3357 10.687 21.7324 9.79689 20.9677 9.03226C20.2031 8.26762 19.3071 7.66428 18.2796 7.22222C17.2521 6.78017 16.1529 6.55914 14.9821 6.55914C13.8351 6.55914 12.7479 6.78017 11.7204 7.22222C10.693 7.66428 9.79689 8.26762 9.03226 9.03226C8.26762 9.79689 7.66428 10.687 7.22222 11.7025C6.78017 12.718 6.55914 13.8112 6.55914 14.9821C6.55914 16.1529 6.78017 17.2521 7.22222 18.2796C7.66428 19.3071 8.26762 20.2031 9.03226 20.9677C9.79689 21.7324 10.693 22.3357 11.7204 22.7778C12.7479 23.2198 13.8351 23.4409 14.9821 23.4409ZM15.6989 15.233C14.4803 15.6392 13.3751 16.2246 12.3835 16.9892C11.3919 17.7539 10.5376 18.6738 9.82079 19.7491C8.69773 18.5066 8.07646 17.0251 7.95699 15.3047C8.14815 15.3286 8.32139 15.3405 8.4767 15.3405H8.96057C11.1589 15.3405 13.2616 14.9701 15.2688 14.2294L15.4839 14.7312L15.6989 15.233ZM16.595 13.6918C18.1004 13.0227 19.4982 12.1386 20.7885 11.0394C21.601 12.2103 22.0072 13.5125 22.0072 14.9462C21.0992 14.7312 20.2151 14.6237 19.3548 14.6237C18.5663 14.6237 17.8017 14.7073 17.0609 14.8746C16.9892 14.6834 16.9176 14.4863 16.8459 14.2832C16.7742 14.08 16.6906 13.8829 16.595 13.6918ZM10.8961 20.7168C11.5173 19.7133 12.282 18.859 13.19 18.1541C14.098 17.4492 15.0896 16.9176 16.1649 16.5591C16.4277 17.3716 16.6428 18.2019 16.81 19.0502C16.9773 19.8984 17.1087 20.7646 17.2043 21.6487C16.5114 21.8877 15.7706 22.0072 14.9821 22.0072C13.4767 22.0072 12.1147 21.5771 10.8961 20.7168ZM17.5269 16.2007C18.1959 16.0812 18.8053 16.0215 19.3548 16.0215C20.2389 16.0215 21.0753 16.141 21.8638 16.3799C21.6726 17.3596 21.2903 18.2557 20.7168 19.0681C20.1434 19.8805 19.4265 20.5376 18.5663 21.0394C18.399 19.4146 18.0526 17.8017 17.5269 16.2007ZM19.8925 9.96416C19.2712 10.466 18.638 10.9259 17.9928 11.3441C17.3477 11.7622 16.6786 12.1266 15.9857 12.4373C15.5795 11.6965 15.1434 10.9737 14.6774 10.2688C14.2115 9.56392 13.7037 8.87694 13.1541 8.20789C13.7276 8.04062 14.3369 7.95699 14.9821 7.95699C15.914 7.95699 16.7981 8.13023 17.6344 8.4767C18.4707 8.82318 19.2234 9.319 19.8925 9.96416ZM14.6595 12.9749C12.8196 13.6201 10.92 13.9427 8.96057 13.9427H8.4767L8.06452 13.9068C8.23178 12.8076 8.63799 11.8041 9.28315 10.8961C9.92832 9.98805 10.7527 9.27121 11.7563 8.74552C12.8793 10.0358 13.8471 11.4456 14.6595 12.9749Z" fill="#252525"/>
</svg>

<svg width="30" height="30" fill="none" xmlns="http://www.w3.org/2000/svg"><path d="M14.982 0c2.079 0 4.026.394 5.842 1.183a15.433 15.433 0 0 1 4.767 3.208 15.06 15.06 0 0 1 3.226 4.749C29.606 10.956 30 12.903 30 14.982c0 2.079-.394 4.026-1.183 5.842a15.276 15.276 0 0 1-3.226 4.767 15.276 15.276 0 0 1-4.767 3.226C19.008 29.606 17.061 30 14.982 30c-2.079 0-4.026-.394-5.842-1.183a15.06 15.06 0 0 1-4.75-3.226 15.433 15.433 0 0 1-3.207-4.767C.394 19.008 0 17.061 0 14.982c0-2.079.394-4.026 1.183-5.842A15.212 15.212 0 0 1 4.39 4.39a15.212 15.212 0 0 1 4.75-3.206C10.956.394 12.903 0 14.982 0Zm0 23.44c1.17 0 2.27-.22 3.298-.662a8.524 8.524 0 0 0 2.688-1.81 8.524 8.524 0 0 0 1.81-2.688 8.255 8.255 0 0 0 .663-3.298c0-1.17-.221-2.264-.663-3.28a8.583 8.583 0 0 0-1.81-2.67 8.524 8.524 0 0 0-2.688-1.81 8.255 8.255 0 0 0-3.298-.663 8.166 8.166 0 0 0-3.262.663 8.526 8.526 0 0 0-2.688 1.81 8.583 8.583 0 0 0-1.81 2.67 8.127 8.127 0 0 0-.663 3.28c0 1.17.221 2.27.663 3.298a8.524 8.524 0 0 0 1.81 2.688 8.526 8.526 0 0 0 2.688 1.81 8.167 8.167 0 0 0 3.262.663Zm.717-8.207a11.172 11.172 0 0 0-3.316 1.756 11.533 11.533 0 0 0-2.562 2.76c-1.123-1.242-1.745-2.724-1.864-4.444a4.2 4.2 0 0 0 .52.036h.484c2.198 0 4.3-.37 6.308-1.112l.215.502.215.502Zm.896-1.541a17.241 17.241 0 0 0 4.194-2.653 6.698 6.698 0 0 1 1.218 3.907 11.493 11.493 0 0 0-2.652-.322c-.789 0-1.553.083-2.294.25a32.459 32.459 0 0 1-.215-.59 5.152 5.152 0 0 0-.251-.592Zm-5.699 7.025a9.628 9.628 0 0 1 2.294-2.563 9.954 9.954 0 0 1 2.975-1.595c.263.813.478 1.643.645 2.491a30.2 30.2 0 0 1 .394 2.599 6.769 6.769 0 0 1-2.222.358 6.92 6.92 0 0 1-4.086-1.29Zm6.63-4.516c.67-.12 1.28-.18 1.829-.18.884 0 1.72.12 2.509.359a6.902 6.902 0 0 1-1.147 2.688 6.79 6.79 0 0 1-2.15 1.971 23.037 23.037 0 0 0-1.04-4.838Zm2.366-6.237c-.62.502-1.254.962-1.9 1.38a14.88 14.88 0 0 1-2.006 1.093 30.666 30.666 0 0 0-1.309-2.168 24.723 24.723 0 0 0-1.523-2.061 6.498 6.498 0 0 1 1.828-.251c.932 0 1.816.173 2.652.52a7.202 7.202 0 0 1 2.258 1.487Zm-5.232 3.01a17.1 17.1 0 0 1-5.7.969h-.483l-.412-.036a6.928 6.928 0 0 1 1.218-3.01 6.935 6.935 0 0 1 2.473-2.151 22.467 22.467 0 0 1 2.903 4.229Z" fill="#252525"/></svg>
